!!!COA: des Prez, Josquin
!!!CDT: ~1450-1521/08/27
!!!OTL: Fors seulement [Bologna 142 fragment]
!!!AGN: Chanson; Fragment
!!!SCT: NJE 30.4
!!!SCA: New Josquin Edition 30.4
!!!ONB: Missing parts
!!!voices: 6
**kern
*Ivox
*I"Tenor
*I'T
*clefG2
*k[]
*a:
*M2/1
*met(C|)
=1
!LO:TX:Z=8:t=From a song &agrave; 6; nearly identical to Okeghem's tenor
[0a
=2
0a]
=3
1.a
4g
4f
=4
0e
=5
1g
1a
=6
1b
1cc
=7
1.dd
2cc
=8
2b
2a
1g
=9
1r
1a
=10
1f
1d
=11
0e
=12
1d
1a
=13
1b
1cc
=14
0dd
=15
1ee
[1ff
=16
1ff]
1ee
=17
1.dd
4cc
4b
=18
0cc
=19
0r
=20
0r
=21
0r
=22
0r
=23
0r
=24
0r
=25
1r
1cc
=26
1dd
1ee
=27
1.ff
4ee
4dd
=28
0cc
=29
0dd
=30
0ee
=31
1dd
1cc
=32
0b
=33
0a
=34
0r
=35
0r
=36
0r
=37
0r
=38
0r
=39
0r
=40
0r
=41
0r
=42
0r
=43
0r
=44
0r
=45
1r
1cc
=46
0dd
=47
1cc
1a
=48
0b-Xi
=49
1a
1f
=50
0g
=51
1.f
4e
4d
=52
1c
1r
=53
0cc
=54
0a
=55
0f
=56
1e
[1f
=57
2f]
2g
[1a
=58
1a]
2g
2f
=59
1e
1r
=60
0r
=61
0d
=62
1.f
2g
=63
1.a
2b
=64
1.cc
2b
=65
1.g
2a
=66
2b
2cc
[1dd
=67
2dd]
4cc
4b
2.a
4g
=68
0cc
=69
1r
1g
=70
1cc
2a
[2cc
=71
4cc]
4b
4a
4g
1a
=72
0gl
==
*-
!!!RDF**kern: l=long note in original notation
!!!RDF**kern: i = editorial accidental
!!!ENC: Jesse Rodin
!!!END: 2020/10/23
!!!EED: Jesse Rodin
!!!EEV: 2021/04/14
!!attribution-level@Jos: 4a (the rest [double question mark])
!!!ONB: Translated from MusicXML and edited on 2021/04/14 by Craig Sapp
!!muse2ps: C^@{COA}??\n@{SCT}^i2I150v150z18c180t300
